X:1
T:Tebe poem
T:Tebe poem
T:Dobri Hristov (1875-1941)
C:Dobri Hristov (1875-1941)
%%score [ 1 2 3 4 ]
L:1/8
Q:1/4=50
M:4/4
K:Bb
V:1 treble nm="Soprano"
V:2 treble nm="Alto"
V:3 treble-8 nm="Tenor"
V:4 bass nm="Bass"
V:1
!pp! G2 | (B4 A2) B2 | (c4 B2) A2 | !>!B2 A2 G2 A2 | B6 B2 | !>!d2 c2 B2 A2 | (B2 AB c2 A2) | %7
w: Te-|be _ po-|em, _ Te-|be bla- go- slo-|vim, Te-|be bla- go- da-|rim _ _ _ _|
 (B2 A2) (G2 F2) | G6 z2 | z8 | z4 z2!p! G2 | A4 G2 A2 |!<(! (=B4 c2 d2)!<)! | %13
w: Gos- * po- *|di.||I|mo- lim ti|sja _ _|
!mf! (e2 d2)!>(! (c2 =B2)!>)! | c6 c2 |!<(! c4 d2 e2!<)! | (d4!>(! c4)!>)! |!p! (B2 A2 B2 c2 | %18
w: Bo- * zje _|nasj, I|mo- lim ti|sja _|Bo- * * *|
 !>!d4 c4 | B2 A2{/c} B2) A2 | G8 ||!pp! G6 G2 | G8 |] %23
w: |* * * zje|nasj,|Bo- zje|nasj.|
V:2
!pp! G2 | G6 G2 | G6 G2 | !>!G2 G2 G2 G2 | G6 G2 | !>!G2 G2 G2 G2 | G8 | G4 D4 | G6 z2 | z8 | z8 | %11
w: Te-|be po-|em, Te-|be bla- go- slo-|vim, Te-|be bla- go- da-|rim|Gos- po-|di.|||
 z4 z2!p! G2 |!<(! G2 G2 G2 G2!<)! |!mf! G4!>(! G4!>)! | G6 G2 |!<(! A4 B2 c2!<)! | %16
w: I|mo- lim ti sja|Bo- zje|nasj, I|mo- lim ti|
 (B4!>(! A2 G2)!>)! |!p! G8- | G8- | G6 G2 |!<(! (G2 D2)!<)!!>(! E4!>)! ||!pp! (D2 C2 D2) C2 | %22
w: sja _ _|Bo-||* zje|nasj, _ _|Bo- * * zje|
 B,8 |] %23
w: nasj.|
V:3
!pp! B2 | (d4 c2) d2 | (e4 d2) c2 | !>!d2 c2 B2 c2 | d6 d2 | !>!f2 e2 d2 c2 | (d4 e2 fe) | %7
w: Te-|be _ po-|em, _ Te-|be bla- go- slo-|vim, Te-|be bla- go- da-|rim _ _ _|
 (d2 c2) (B2 d2) | G6 z2 | z4 z2!pp! d2 |!<(! d4 c2 d2!<)! | (e4 d2) e2 |!<(! d2 d2 e2 f2!<)! | %13
w: Gos- * po- *|di.|I|mo- lim ti|sja, _ I|mo- lim ti sja|
!mf! (g2 f2)!>(! (e2 d2)!>)! | e6 e2 |!<(! e4 d2 c2!<)! | (d4!>(! e4)!>)! |!p! (d2 c2 d2 e2 | %18
w: Bo- * zje _|nasj, I|mo- lim ti|sja _|Bo- * * *|
 !>!f4 e4 | d2 c2{/e} d2) c2 |!<(! (B4!<)!!>(! c4)!>)! ||!pp! (B2 A2 B2) A2 | G8 |] %23
w: |* * * zje|nasj, _|Bo- * * zje|nasj.|
V:4
!pp! G,2 | G,6 G,2 | G,6 G,2 | !>!G,2 G,2 G,2 G,2 | G,6 G,2 | !>!G,2 G,2 G,2 G,2 | (G,4 C,4) | %7
w: Te-|be po-|em, Te-|be bla- go- slo-|vim, Te-|be bla- go- da-|rim _|
 D,4 D,4 | [G,,G,]6!pp! G,2 |!<(! A,4 G,2 A,2!<)! | (B,4 A,2) B,2 | C4 B,2 C2 |!<(! G,8!<)! | %13
w: Gos- po-|di. I|mo- lim ti|sja, _ I|mo- lim ti|sja|
!mf! G,4!>(! G,4!>)! | (C2 B,2 A,2) G,2 |!<(! F,4 F,2 F,2!<)! | (B,4!>(! C4)!>)! |!p! G,8- | G,8- | %19
w: Bo- zje|nasj, _ _ I|mo- lim ti|sja _|Bo-||
 G,6 G,2 | [G,,G,]8 ||!pp! [G,,G,]6 [G,,G,]2 | [G,,G,]8 |] %23
w: * zje|nasj,|Bo- zje|nasj.|

